src/svg/rollouts.svg

<svg fill="none" height="260" viewBox="0 0 249 260" width="249" xmlns="http://www.w3.org/2000/svg" xmlns:xlink="http://www.w3.org/1999/xlink"><linearGradient id="a" gradientUnits="userSpaceOnUse" x1="122.22" x2="145.766" y1="13.7402" y2="94.6531"><stop offset="0" stop-color="#5e6294"/><stop offset="1" stop-color="#878bb2"/></linearGradient><g clip-rule="evenodd" fill-rule="evenodd"><path d="m188.376 202.62-65.483 37.807-.255-76.061 65.479-37.804z" fill="#5c74c6"/><path d="m186.903 178.076-.172-50.714-64.093 37.004.172 50.715z" fill="#5670c9"/><path d="m122.638 164.367-65.7428-38.251 65.4838-37.8072 65.738 38.2542z" fill="#ebebf2"/><path d="m122.378 88.3093-64.0928 37.0037 46.5828 30.268 64.093-37.004z" fill="#ebebf2"/><path d="m122.893 240.427-65.7385-38.254-.2596-76.058 65.7431 38.251z" fill="#ef7b4d"/><path d="m109.147 216.62-.2-60.221-52.0527-30.284.2054 60.218z" fill="#ef7b4d"/></g><path d="m186.449 127.525 1.667-.962.259 76.057-65.483 37.807" stroke="#5c74c6" stroke-linecap="round" stroke-linejoin="round" stroke-width="10.996"/><path d="m122.638 164.366.255 76.061-65.7385-38.254-.2596-76.058" stroke="#e67143" stroke-linecap="round" stroke-linejoin="round" stroke-width="10.996"/><path d="m122.638 164.367-65.7428-38.251 65.4838-37.8072 65.738 38.2542z" style="fill-rule:evenodd;clip-rule:evenodd;stroke:#e7e7ee;stroke-width:10.996;stroke-linecap:round;stroke-linejoin:round"/><path d="m155.25 178.565c-2.624-1.527-5.99-.637-7.517 1.987-1.527 2.625-.637 5.99 1.987 7.517l78.008 45.388-13.459 2.368c-2.991.526-4.989 3.377-4.463 6.368.527 2.99 3.377 4.988 6.368 4.462l28.262-4.973c.63-.111 1.228-.329 1.772-.639.816-.464 1.524-1.143 2.03-2.013.891-1.53.959-3.312.342-4.835l-9.759-26.774c-1.04-2.853-4.196-4.322-7.049-3.282-2.852 1.039-4.322 4.195-3.282 7.048l4.622 12.681z" fill="#5e6294"/><path d="m88.0221 177.555c2.4444-1.422 5.579-.593 7.0012 1.851 1.4223 2.445.5936 5.579-1.8508 7.001l-72.6541 42.273 12.5357 2.206c2.7853.49 4.646 3.145 4.1559 5.93-.49 2.785-3.1452 4.646-5.9305 4.156l-26.32272-4.631c-.5868-.103-1.14382-.307-1.64973-.595-.76031-.432-1.41997-1.065-1.89146-1.875-.829149-1.426-.893289-3.085-.31827-4.503l9.08948-24.937c.9685-2.657 3.9076-4.026 6.5647-3.057 2.657.968 4.0259 3.907 3.0574 6.564l-4.3051 11.811z" fill="#5e6294"/><circle cx="122.22" cy="54.7532" fill="url(#a)" opacity=".2" r="41.0129"/><path clip-rule="evenodd" d="m122.22 105.952c28.277 0 51.199-22.9221 51.199-51.1987 0-28.2765-22.922-51.1991-51.199-51.1991-28.2765 0-51.1991 22.9226-51.1991 51.1991 0 28.2766 22.9226 51.1987 51.1991 51.1987zm0-10.1857c22.651 0 41.013-18.3621 41.013-41.013 0-22.6508-18.362-41.0129-41.013-41.0129-22.6507 0-41.0129 18.3621-41.0129 41.0129 0 22.6509 18.3622 41.013 41.0129 41.013z" fill="#5e6294" fill-rule="evenodd" opacity=".14"/><path d="m98.7839 76.2423c-5.6101-2.43-9.535-8.0163-9.535-14.5194 0-6.0805 3.4314-11.3595 8.4635-14.0063-.3489-13.9012 10.8286-25.3982 24.7756-25.3982s25.125 11.497 24.776 25.3982c5.032 2.6468 8.463 7.9258 8.463 14.0063 0 6.5031-3.925 12.0894-9.535 14.5194l-.915 24.3307c.262 6.298 2.161 6.82 9.305 8.785.689.19 1.427.393 2.218.615-5.885 1.346-9.582 1.531-11.908.828l-.423 11.235c-.944 10.619-.849 10.644 6.318 12.509.975.253 2.08.541 3.332.894-15.433 3.528-15.634-3.462-15.816-9.784-.036-1.263-.072-2.499-.228-3.619h-.575c-.035.425-.068.838-.101 1.24l-.001.01c-.72 8.841-.967 11.875.421 13.213.725.699 1.897.935 3.681 1.295 1.866.375 4.4.886 7.794 2.202-18.198 2.534-18.184-3.246-18.161-13.088.004-1.531.008-3.16-.056-4.872h-.547c-.843 18.971.137 19.212 6.59 20.795 1.753.43 3.91.959 6.545 1.99-18.545 2.061-19.287-3.209-20.43-11.328-.203-1.438-.418-2.965-.747-4.557-.329 1.592-.544 3.119-.746 4.557-1.143 8.118-1.886 13.389-20.43 11.328 2.634-1.031 4.791-1.56 6.544-1.99 6.453-1.583 7.433-1.824 6.59-20.795h-.546c-.065 1.712-.061 3.341-.057 4.872.024 9.842.037 15.622-18.1607 13.088 3.3937-1.316 5.9287-1.827 7.7937-2.202 1.784-.36 2.956-.596 3.681-1.295 1.388-1.338 1.141-4.372.421-13.213-.033-.404-.067-.821-.102-1.25h-.575c-.156 1.12-.191 2.356-.228 3.619-.181 6.322-.382 13.312-15.8153 9.784 1.2513-.353 2.3566-.641 3.3312-.894 7.1671-1.865 7.2621-1.89 6.3181-12.509l-.422-11.235c-2.3272.703-6.0236.518-11.9083-.828.7902-.222 1.5284-.425 2.2178-.615 7.1441-1.965 9.0429-2.487 9.3051-8.785z" fill="#ef7b4d"/><circle cx="104.26" cy="61.9909" fill="#fefefe" r="11.7946"/><circle cx="103.992" cy="60.1141" fill="#000" r="4.02088"/><circle cx="139.108" cy="61.9909" fill="#fefefe" r="11.7946"/><circle cx="138.84" cy="60.1141" fill="#000" r="4.02088"/><path d="m113.374 83.9712s4.289 4.2889 9.114 4.2889 9.114-4.2889 9.114-4.2889v5.3612c0 5.0335-4.08 9.1139-9.114 9.1139-5.033 0-9.114-4.0804-9.114-9.1139z" fill="#fafafa"/><path d="m113.374 88.2607s4.289 4.289 9.114 4.289 9.114-4.289 9.114-4.289v1.0723c0 5.0335-4.08 9.114-9.114 9.114-5.033 0-9.114-4.0805-9.114-9.114z" fill="#202124"/><path d="m88.167 80.3981c-5.3312-7.083-8.5063-15.8838-8.5457-25.4306-.0633-15.3853 8.0331-28.9001 20.2225-36.444" opacity=".16" stroke="#5e6294" stroke-linecap="round" stroke-width="3.2167"/><circle cx="105.332" cy="14.8124" fill="#5e6294" opacity=".45" r="2.14447"/><rect fill="#5e6294" height="24.6614" rx="2.14447" width="4.82505" x="66.1959" y="42.6909"/><rect fill="#5e6294" height="24.6614" rx="2.14447" width="4.82505" x="173.419" y="42.6909"/><path clip-rule="evenodd" d="m122.22 108.633c29.757 0 53.88-24.1228 53.88-53.8797 0-29.757-24.123-53.879765-53.88-53.879765-29.7569 0-53.8797 24.122765-53.8797 53.879765 0 29.7569 24.1228 53.8797 53.8797 53.8797zm0-2.681c28.277 0 51.199-22.9222 51.199-51.1987s-22.922-51.19913-51.199-51.19913c-28.2765 0-51.1991 22.92263-51.1991 51.19913s22.9226 51.1987 51.1991 51.1987z" fill="#5e6294" fill-opacity=".2" fill-rule="evenodd"/><path d="m116.83 34.4301c-.538 2.5215-2.728 4.1911-4.89 3.729-2.163-.462-3.549-2.4806-3.01-5.0021s3.834-5.2002 5.996-4.7381c2.162.462 2.443 3.4897 1.904 6.0112z" fill="#f77f4f"/></svg>

<svg width="249" height="260" viewBox="0 0 249 260" fill="none" xmlns="http://www.w3.org/2000/svg">
<path fill-rule="evenodd" clip-rule="evenodd" d="M188.376 202.62L122.893 240.427L122.638 164.366L188.117 126.562L188.376 202.62Z" fill="#5C74C6"/>
<path fill-rule="evenodd" clip-rule="evenodd" d="M186.903 178.076L186.731 127.362L122.638 164.366L122.81 215.081L186.903 178.076Z" fill="#5670C9"/>
<path fill-rule="evenodd" clip-rule="evenodd" d="M122.638 164.367L56.8952 126.116L122.379 88.3088L188.117 126.563L122.638 164.367Z" fill="#EBEBF2"/>
<path fill-rule="evenodd" clip-rule="evenodd" d="M122.378 88.3093L58.2852 125.313L104.868 155.581L168.961 118.577L122.378 88.3093Z" fill="#EBEBF2"/>
<path fill-rule="evenodd" clip-rule="evenodd" d="M122.893 240.427L57.1545 202.173L56.8949 126.115L122.638 164.366L122.893 240.427Z" fill="#EF7B4D"/>
<path fill-rule="evenodd" clip-rule="evenodd" d="M109.147 216.62L108.947 156.399L56.8943 126.115L57.0997 186.333L109.147 216.62Z" fill="#EF7B4D"/>
<path d="M186.449 127.525L188.116 126.563L188.375 202.62L122.892 240.427" stroke="#5C74C6" stroke-width="10.996" stroke-linecap="round" stroke-linejoin="round"/>
<path d="M122.638 164.366L122.893 240.427L57.1545 202.173L56.8949 126.115" stroke="#E67143" stroke-width="10.996" stroke-linecap="round" stroke-linejoin="round"/>
<path fill-rule="evenodd" clip-rule="evenodd" d="M122.638 164.367L56.8952 126.116L122.379 88.3088L188.117 126.563L122.638 164.367Z" stroke="#E7E7EE" stroke-width="10.996" stroke-linecap="round" stroke-linejoin="round"/>
<path d="M155.25 178.565C152.626 177.038 149.26 177.928 147.733 180.552C146.206 183.177 147.096 186.542 149.72 188.069L227.728 233.457L214.269 235.825C211.278 236.351 209.28 239.202 209.806 242.193C210.333 245.183 213.183 247.181 216.174 246.655L244.436 241.682C245.066 241.571 245.664 241.353 246.208 241.043C247.024 240.579 247.732 239.9 248.238 239.03C249.129 237.5 249.197 235.718 248.58 234.195L238.821 207.421C237.781 204.568 234.625 203.099 231.772 204.139C228.92 205.178 227.45 208.334 228.49 211.187L233.112 223.868L155.25 178.565Z" fill="#5E6294"/>
<path d="M88.0221 177.555C90.4665 176.133 93.6011 176.962 95.0233 179.406C96.4456 181.851 95.6169 184.985 93.1725 186.407L20.5184 228.68L33.0541 230.886C35.8394 231.376 37.7001 234.031 37.21 236.816C36.72 239.601 34.0648 241.462 31.2795 240.972L4.95678 236.341C4.36998 236.238 3.81296 236.034 3.30705 235.746C2.54674 235.314 1.88708 234.681 1.41559 233.871C0.586441 232.445 0.522301 230.786 1.09732 229.368L10.1868 204.431C11.1553 201.774 14.0944 200.405 16.7515 201.374C19.4085 202.342 20.7774 205.281 19.8089 207.938L15.5038 219.749L88.0221 177.555Z" fill="#5E6294"/>
<circle opacity="0.2" cx="122.22" cy="54.7532" r="41.0129" fill="url(#paint0_linear)"/>
<path opacity="0.14" fill-rule="evenodd" clip-rule="evenodd" d="M122.22 105.952C150.497 105.952 173.419 83.0299 173.419 54.7533C173.419 26.4768 150.497 3.5542 122.22 3.5542C93.9435 3.5542 71.0209 26.4768 71.0209 54.7533C71.0209 83.0299 93.9435 105.952 122.22 105.952ZM122.22 95.7663C144.871 95.7663 163.233 77.4042 163.233 54.7533C163.233 32.1025 144.871 13.7404 122.22 13.7404C99.5693 13.7404 81.2071 32.1025 81.2071 54.7533C81.2071 77.4042 99.5693 95.7663 122.22 95.7663Z" fill="#5E6294"/>
<path d="M98.7839 76.2423C93.1738 73.8123 89.2489 68.226 89.2489 61.7229C89.2489 55.6424 92.6803 50.3634 97.7124 47.7166C97.3635 33.8154 108.541 22.3184 122.488 22.3184C136.435 22.3184 147.613 33.8154 147.264 47.7166C152.296 50.3634 155.727 55.6424 155.727 61.7229C155.727 68.226 151.802 73.8123 146.192 76.2423L145.277 100.573C145.539 106.871 147.438 107.393 154.582 109.358C155.271 109.548 156.009 109.751 156.8 109.973C150.915 111.319 147.218 111.504 144.892 110.801L144.469 122.036C143.525 132.655 143.62 132.68 150.787 134.545C151.762 134.798 152.867 135.086 154.119 135.439C138.686 138.967 138.485 131.977 138.303 125.655C138.267 124.392 138.231 123.156 138.075 122.036H137.5C137.465 122.461 137.432 122.874 137.399 123.276L137.398 123.286C136.678 132.127 136.431 135.161 137.819 136.499C138.544 137.198 139.716 137.434 141.5 137.794C143.366 138.169 145.9 138.68 149.294 139.996C131.096 142.53 131.11 136.75 131.133 126.908C131.137 125.377 131.141 123.748 131.077 122.036H130.53C129.687 141.007 130.667 141.248 137.12 142.831C138.873 143.261 141.03 143.79 143.665 144.821C125.12 146.882 124.378 141.612 123.235 133.493C123.032 132.055 122.817 130.528 122.488 128.936C122.159 130.528 121.944 132.055 121.742 133.493C120.599 141.611 119.856 146.882 101.312 144.821C103.946 143.79 106.103 143.261 107.856 142.831C114.309 141.248 115.289 141.007 114.446 122.036H113.9C113.835 123.748 113.839 125.377 113.843 126.908C113.867 136.75 113.88 142.53 95.6823 139.996C99.076 138.68 101.611 138.169 103.476 137.794C105.26 137.434 106.432 137.198 107.157 136.499C108.545 135.161 108.298 132.127 107.578 123.286C107.545 122.882 107.511 122.465 107.476 122.036H106.901C106.745 123.156 106.71 124.392 106.673 125.655C106.492 131.977 106.291 138.967 90.8577 135.439C92.109 135.086 93.2143 134.798 94.1889 134.545C101.356 132.68 101.451 132.655 100.507 122.036L100.085 110.801C97.7578 111.504 94.0614 111.319 88.1767 109.973C88.9669 109.751 89.7051 109.548 90.3945 109.358C97.5386 107.393 99.4374 106.871 99.6996 100.573L98.7839 76.2423Z" fill="#EF7B4D"/>
<circle cx="104.26" cy="61.9909" r="11.7946" fill="#FEFEFE"/>
<circle cx="103.992" cy="60.1141" r="4.02088" fill="black"/>
<circle cx="139.108" cy="61.9909" r="11.7946" fill="#FEFEFE"/>
<circle cx="138.84" cy="60.1141" r="4.02088" fill="black"/>
<path d="M113.374 83.9712C113.374 83.9712 117.663 88.2601 122.488 88.2601C127.313 88.2601 131.602 83.9712 131.602 83.9712V89.3324C131.602 94.3659 127.522 98.4463 122.488 98.4463C117.455 98.4463 113.374 94.3659 113.374 89.3324V83.9712Z" fill="#FAFAFA"/>
<path d="M113.374 88.2607C113.374 88.2607 117.663 92.5497 122.488 92.5497C127.313 92.5497 131.602 88.2607 131.602 88.2607V89.333C131.602 94.3665 127.522 98.447 122.488 98.447C117.455 98.447 113.374 94.3665 113.374 89.333V88.2607Z" fill="#202124"/>
<path opacity="0.16" d="M88.167 80.3981C82.8358 73.3151 79.6607 64.5143 79.6213 54.9675C79.558 39.5822 87.6544 26.0674 99.8438 18.5235" stroke="#5E6294" stroke-width="3.2167" stroke-linecap="round"/>
<circle opacity="0.45" cx="105.332" cy="14.8124" r="2.14447" fill="#5E6294"/>
<rect x="66.1959" y="42.6909" width="4.82505" height="24.6614" rx="2.14447" fill="#5E6294"/>
<rect x="173.419" y="42.6909" width="4.82505" height="24.6614" rx="2.14447" fill="#5E6294"/>
<path fill-rule="evenodd" clip-rule="evenodd" d="M122.22 108.633C151.977 108.633 176.1 84.5102 176.1 54.7533C176.1 24.9963 151.977 0.873535 122.22 0.873535C92.4631 0.873535 68.3403 24.9963 68.3403 54.7533C68.3403 84.5102 92.4631 108.633 122.22 108.633ZM122.22 105.952C150.497 105.952 173.419 83.0298 173.419 54.7533C173.419 26.4768 150.497 3.55417 122.22 3.55417C93.9435 3.55417 71.0209 26.4768 71.0209 54.7533C71.0209 83.0298 93.9435 105.952 122.22 105.952Z" fill="#5E6294" fill-opacity="0.2"/>
<path d="M116.83 34.4301C116.292 36.9516 114.102 38.6212 111.94 38.1591C109.777 37.6971 108.391 35.6785 108.93 33.157C109.469 30.6355 112.764 27.9568 114.926 28.4189C117.088 28.8809 117.369 31.9086 116.83 34.4301Z" fill="#F77F4F"/>
<defs>
<linearGradient id="paint0_linear" x1="122.22" y1="13.7402" x2="145.766" y2="94.6531" gradientUnits="userSpaceOnUse">
<stop stop-color="#5E6294"/>
<stop offset="1" stop-color="#878BB2"/>
</linearGradient>
</defs>
</svg>
